X:71
T:Week 7 Homework
T:Part 1: Writing Sequences
T:Part 1a
L:1/4
M:4/4
K:A
V:1
"with all chords in root position"[Ace][Adf][Bdg][ceg]|[cfa][Bdf][Beg][cea]||\
"with alternating 5/3 and 6/5 chords"[Ace][Acd][GBd][GBc]|[FAc][FAB][EGB][CEA]||
V:2
    A, D G, C| F, B, E, A, ||A, F, G, E,| F, D, E, A, ||
w:A:~I IV viio iii|vi ii V I| I IV65 viio iii65| vi ii65 V I|
%
W:1. Each example provides a sequence model and brackets to show where the copies go.
W:Because this is a descending fifths sequence, the model will be transposed down a step each time.
W:Fill in the rest of the sequence by writing out the keyboard style chords and analyzing with roman numerals.
W:Use only diatonic chords.

